villages/Konohagakure_Symbol.svg

<svg xmlns:dc="http://purl.org/dc/elements/1.1/" xmlns:cc="http://creativecommons.org/ns#" xmlns:rdf="http://www.w3.org/1999/02/22-rdf-syntax-ns#" xmlns:svg="http://www.w3.org/2000/svg" xmlns="http://www.w3.org/2000/svg" xmlns:sodipodi="http://sodipodi.sourceforge.net/DTD/sodipodi-0.dtd" xmlns:inkscape="http://www.inkscape.org/namespaces/inkscape" version="1.0" width="100" height="100" id="svg2211" sodipodi:version="0.32" inkscape:version="0.46" sodipodi:docname="Village Symbol Konohagakure.svg" inkscape:output_extension="org.inkscape.output.svg.inkscape">
    <metadata id="metadata9">
        <rdf:RDF>
            <cc:Work rdf:about="">
                <dc:format>image/svg+xml</dc:format>
                <dc:type rdf:resource="http://purl.org/dc/dcmitype/StillImage"/>
            </cc:Work>
        </rdf:RDF>
    </metadata>
    <sodipodi:namedview inkscape:window-height="930" inkscape:window-width="1280" inkscape:pageshadow="2" inkscape:pageopacity="0.0" guidetolerance="10.0" gridtolerance="10.0" objecttolerance="10.0" borderopacity="1.0" bordercolor="#666666" pagecolor="#ffffff" id="base" showgrid="false" inkscape:zoom="2" inkscape:cx="-27.50099" inkscape:cy="127.79775" inkscape:window-x="-4" inkscape:window-y="-4" inkscape:current-layer="svg2211" showguides="true" inkscape:guide-bbox="true">
        <inkscape:grid type="xygrid" id="grid3154" visible="true" enabled="true"/>
    </sodipodi:namedview>
    <defs id="defs2214">
        <inkscape:perspective sodipodi:type="inkscape:persp3d" inkscape:vp_x="0 : 50 : 1" inkscape:vp_y="0 : 1000 : 0" inkscape:vp_z="100 : 50 : 1" inkscape:persp3d-origin="50 : 33.333333 : 1" id="perspective10"/>
        <inkscape:perspective id="perspective2390" inkscape:persp3d-origin="372.04724 : 350.78739 : 1" inkscape:vp_z="744.09448 : 526.18109 : 1" inkscape:vp_y="0 : 1000 : 0" inkscape:vp_x="0 : 526.18109 : 1" sodipodi:type="inkscape:persp3d"/>
        <inkscape:perspective id="perspective2394" inkscape:persp3d-origin="372.04724 : 350.78739 : 1" inkscape:vp_z="744.09448 : 526.18109 : 1" inkscape:vp_y="0 : 1000 : 0" inkscape:vp_x="0 : 526.18109 : 1" sodipodi:type="inkscape:persp3d"/>
    </defs>
    <g id="g3173" style="stroke:#000000;stroke-width:4.20698643;stroke-miterlimit:4;stroke-dasharray:none;stroke-opacity:1" transform="matrix(1.3591116,0,0,1.3561972,265.67402,124.78495)">
        <path sodipodi:nodetypes="cccccccccccc" id="path2399" d="M -142.125,-55.25 C -140.875,-54.666667 -139.4375,-53.9375 -139.875,-49.875 C -141.1875,-46.3125 -143.6875,-43.270833 -150,-43.5 C -155.0625,-44.729167 -160.5625,-46.166667 -160.125,-56.25 C -159.6875,-61.458333 -154.25,-68.6875 -145,-68.75 C -131.625,-68.5625 -125.0625,-56.75 -125.625,-47.625 C -126.3125,-34.625 -136.70833,-27.875 -151,-26.625 C -158.66667,-26.625 -167.5625,-30.8125 -171.625,-37.125 C -176.6875,-43.6875 -178.64583,-57.208333 -174.375,-66.125 C -169.85417,-75.666667 -161.3244,-81.672042 -151.25,-81.875 C -141.89583,-82.0625 -135.75,-78.541667 -132.25,-76.375 L -124,-84.375" style="opacity:1;fill:none;fill-opacity:1;fill-rule:nonzero;stroke:#000000;stroke-width:4.20698643;stroke-linecap:round;stroke-linejoin:round;marker:none;marker-start:none;marker-mid:none;marker-end:none;stroke-miterlimit:4;stroke-dasharray:none;stroke-dashoffset:0;stroke-opacity:1;visibility:visible;display:inline;overflow:visible;enable-background:accumulate"/>
        <path sodipodi:nodetypes="cccc" id="path2401" d="M -172.625,-69.25 C -177.5736,-61.537772 -180.88532,-51.495796 -184.25,-45.375 C -186.66667,-40.125 -189.95833,-37.125 -193.375,-33.125 C -179.80766,-25.257434 -158.89934,-24.622727 -145.3125,-27.4375" style="opacity:1;fill:none;fill-opacity:1;fill-rule:nonzero;stroke:#000000;stroke-width:4.20698643;stroke-linecap:round;stroke-linejoin:round;marker:none;marker-start:none;marker-mid:none;marker-end:none;stroke-miterlimit:4;stroke-dasharray:none;stroke-dashoffset:0;stroke-opacity:1;visibility:visible;display:inline;overflow:visible;enable-background:accumulate"/>
    </g>
</svg>

<svg xmlns="http://www.w3.org/2000/svg" version="1" width="100" height="100">
    <g stroke="#000" stroke-width="4.207" fill="none" stroke-linecap="round" stroke-linejoin="round">
        <path d="M-142.125-55.25c1.25.583 2.688 1.313 2.25 5.375-1.313 3.563-3.813 6.604-10.125 6.375-5.063-1.23-10.563-2.667-10.125-12.75.438-5.208 5.875-12.438 15.125-12.5 13.375.188 19.938 12 19.375 21.125-.688 13-11.083 19.75-25.375 21-7.667 0-16.563-4.188-20.625-10.5-5.063-6.563-7.02-20.083-2.75-29 4.52-9.542 13.05-15.547 23.125-15.75 9.354-.188 15.5 3.333 19 5.5l8.25-8" overflow="visible" transform="matrix(1.359 0 0 1.3562 265.674 124.785)"/>
        <path d="M-172.625-69.25c-4.95 7.712-8.26 17.754-11.625 23.875-2.417 5.25-5.708 8.25-9.125 12.25 13.567 7.868 34.476 8.502 48.063 5.688" overflow="visible" transform="matrix(1.359 0 0 1.3562 265.674 124.785)"/>
    </g>
</svg>
